!!!!SEGMENT: 025-1b-LE-004.krn
!!!COM: F. Chopin
!!!OTL: 4me ÉTUDE.
!!!OPS: Op. 25
!!!PTL: Etudes pour le piano
!!!PPR: Lemoine
!!!PPP: Paris
!!!NIFC-rismID: 1001002386
!!!NIFC-shelfmark: PL-Wbfc 4808/n
!!!OMD: [quarter] = 120
!!!OMD: Agitato
**kern	**kern	**dynam
*part1	*part1	*part1
*staff2	*staff1	*
*clefF4	*clefG2	*
*k[]	*k[]	*
*a:	*a:	*
*M2/2	*M2/2	*
*met(c)	*met(c)	*
*MM120	*MM120	*
(4E^<	4r	.
=1	=1	=1
8AA`>L)	8r	p
8E`>J 8c`>	8e\`> 8a`>\ 8ee`>\	.
8C`>L	8r	.
8A`>J 8e`>	8a`> 8ee`> 8aa`>	.
8BB`>L	8r	.
8F`>J 8d`>	8a`> 8dd`> 8aa`>	.
8E`>L	8r	.
8B`>J 8e`>	8g#X`> 8ee`> 8gg#X`>	.
=2	=2	=2
8C`>L	8r	.
8A`>J 8e`>	8a`> 8ee`>	.
8AA`>L	8r	.
8A`>J 8e`>	8cc`> 8ee`> 8ccc`>	.
8D`>L	8r	.
8A`>J 8f`>	8cc`> 8ff`> 8ccc`>	.
8D`>L	8r	.
8G#X`>J 8f`>	8b`> 8ff`> 8bb`>	.
=3	=3	=3
8C`>L	8r	.
8A`>J 8f`>	8a`> 8ff`> 8aa`>	.
8C`>L	8r	.
8A`>J 8e`>	8ee`> 8aa`> 8eee`>	.
8BB`>L	8r	.
8F`>J 8d`>	8dd`> 8aa`> 8ddd`>	.
8EE`>L<	8r	.
8E`>J 8B`> 8d`>	8ee`> 8gg#X`> 8eee`>	.
=4	=4	=4
8AA`>L	8r	.
8E`>J 8c`>	8cc`> 8ee`> 8ccc`>	.
8BB`>L	8r	.
8E`>J 8d`>	8g#X`> 8ee`> 8gg#X`>	.
8C`>L	8r	.
8E`>J 8e`>	8a`> 8ee`> 8aa`>	.
8AA`>L	8r	.
8E`>J 8c`>	8cc`> 8ee`> 8ccc`>	.
!!LO:LB:g=original
=5	=5	=5
8EE`>L<	8r	.
8E`>J 8d`>	8b` 8ee 8bb	.
8AA`>L	8r	.
8E`>J 8c`>	8a` 8ee 8aa	.
8BB`>L	8r	.
8E`>J 8G#X`> 8d`>	8e\` 8b\ 8ee\	.
8AA`>L	8r	.
8E`>J 8A`> 8c`>	8a` 8ee 8aa	.
=6	=6	=6
8EE`>L<	8r	.
8E`>J 8G#X`> 8d	8b`> 8ee`> 8bb`>	.
8AA`>L	8r	.
8E`>J 8A`> 8c`>	8a`> 8ee`> 8aa`>	.
8BB`>L	8r	.
8E`>J 8G#`> 8d`>	8e`>\ 8b`>\ 8ee`>\	.
8AA`>L	8r	.
8E`>J 8A`> 8c`>	8a`> 8ee`> 8aa`>	.
=7	=7	=7
8GG`>L	8r	.
8Gny`>J 8e`>	8b`> 8ee`> 8bb`>	.
8AA`>L	8r	.
8A`>J 8e`>	8cc`> 8ee`> 8ccc`>	.
8BB`>L	8r	.
8B`>J 8e`>	8g`> 8b`> 8gg`>	.
8BB`>L	8r	.
8B`>J 8d#X`>	8a`> 8b`> 8ff#X`>	.
=8	=8	=8
8E`>L	8r	<
8B`>J 8e`>	8g#X`> 8b`> 8ee`>	.
8D#X`>L	8r	.
8c`>J 8f#X`>	8a`> 8cc`> 8ff#X`>	.
8Dn`>L	8r	.
8B`>J 8fn`>	8gn` 8b`> 8ffn`> 8ggn`>	.
!LO:TX:t=P:mixed beam:problem	!	!
8EE`>/L	8r	.
8B`>J\ 8e`>\	8g#X`> 8dd`> 8ee`> 8gg#X`>	[
=9	=9	=9
*	*^	*
8AA`>L	4.reeeyy	8r	[
8A`>J 8e`>	.	8a`> 8cc`> 8ee`> 8aa`>	.
8C`>L	.	8r	.
!	!	!LO:TX:b:i:t=staccato	!
8A`>J 8e`>	(2aa^>	8a`< 8ee`<	.
8BB`>L	.	8r	.
8F`>J 8d`>	.	8a`> 8dd`>	.
8E`>L	.	8r	.
8B`>J 8e`>	8gg#X)	8g#X`< 8ee`<	.
!!LO:LB:g=original
=10	=10	=10	=10
8C`>L	4.reeeyy	8r	.
8A`>J 8e`>	.	8a`> 8ee`>	.
8AA`>L	.	8r	.
8A`>J 8e`>	(>2ccc^>	8cc 8ee	.
8D`>L	.	8r	.
8A`>J 8f`>	.	8cc 8ff`>	.
8D`>L	.	8r	.
8G#X`>J 8f`>	[>8bb	8b 8ff	.
=11	=11	=11	=11
8C`>L	8bbL]	8r	.
8A`>J 8f`>	8aaJ`)	8a 8ff`	.
8C`>L	8rccc	8r	.
!	!	!LO:TX:i:t=stacc	!
8A`>J 8e`>	(>4eee	8ee 8aa	.
8BB`>L	.	8r	.
8F`>J 8d`>	4ddd	8dd 8aa	.
8EE`>L\	.	8r	.
8E`>J\ 8B`>\ 8d`>\	[8eee	8ee 8gg#X	.
=12	=12	=12	=12
8AA`>L	8eee])	8r	.
8E`>J 8c`>	(>4ccc	8cc 8ee	.
8BB`>L	.	8r	.
8E`>J 8G#X`> 8d`>	4bb	8b 8ee	.
8C`>L	.	8r	.
8E`>J 8A`> 8e`>	4.aa	8a 8ee	.
8AA`>L	.	8r	.
8E`>J 8c`>	.	8cc`> 8ee`>)	.
=13	=13	=13	=13
8EE`>L\	8rcccyyy	8r	.
8E`>J\ 8d`>\	(>4bb	8b 8ee	.
8AA`>L	.	8r	.
8E`>J 8c`>	4aa	8a 8ee	.
8BB`>L	.	8r	.
8E`>J 8G#X`> 8d`>	4ee	8e 8b	.
8AA`>L	.	8r	.
8E`>J 8A`> 8c`>	8aa)	8a 8ee	.
=14	=14	=14	=14
8EE`>\L	8reeeyy	8r	.
8E`>\J 8G#X`>\ 8d`>\	(>4bb	8b 8ee	.
8AA`>L	.	8r	.
8E`>J 8A`> 8c`>	4aa	8a 8ee	.
8BB`>L	.	8r	.
8E`>J 8G#`> 8d`>	4ee	8e 8b	<
8AA`>L	.	8r	.
8E`>J 8A`> 8c`>	8aa)	8a 8ee	.
!!LO:LB:g=original
=15	=15	=15	=15
8GG`>L	8reeeyy	8r	.
8Gny`>J 8e`>	(4bb	8b 8ee	.
8AA`>L	.	8r	.
8A`>J 8e`>	4ccc	8cc 8ee	[
8BB`>L	.	8r	.
8B`>J 8e`>	4gg	8g 8b`>	.
8BB`>L	.	8r	.
8B`>J 8d#X`>	[>8ff#X	8a'> 8b`>	.
=16	=16	=16	=16
8E`>L	8ff#]	8r	>
8B`>J 8e`>	2..ee)	8g 8b	.
8AA`>L	.	8r	.
8A`>J 8e`>	.	8a> 8cc>	.
8E`>L	.	8r	.
8B`>J 8e`>	.	8g> 8b>	.
8AA`>L	.	8r	]
8A`>J 8e`>	.	8a> 8cc>	.
=17	=17	=17	=17
8GG`>L	8rcccyy	8r	pp
8G`>J 8e`>	(4bb	8b 8ee	.
8AA`>L	.	8r	.
8A`>J 8e`>	4ccc	8cc 8ee	.
8BB`>L	.	8r	.
8B`>J 8e`>	4gg	8g 8b	.
8BB`>L	.	8r	.
8B`>J 8d#X`>	8ff#X)	8a 8b	.
=18	=18	=18	=18
!	!	!	!LO:HP:b=2
8E`L	8rcccyy	8r	<
8G`>J 8B`> 8e`>	(2ee	8g 8b	.
8D#X`>L	.	8r	.
8G`>J 8B`> 8e`>	.	8g 8b	.
8Dn`>L	.	8r	.
8G#X`>J 8B`> 8f`>	4.ff	8g#X 8b	.
8D-X`>L	.	8r	.
8G#`>J 8B`> 8f`>	.	8g# 8b	[
*	*v	*v	*
=19	=19	=19
*ped	*	*
8C`>L	8r	f
8A`>J 8f`>	4a^> 4cc^> 4aa^>	.
8C`>L	.	.
*Xped	*	*
8A-X`>J 8f`>	4a-X^> 4b^> 4aa-X^>	.
*ped	*	*
8C`>L	.	.
8G`>J 8e`>	8g^> 8b-X^> 8gg^>	.
8C`>L	8r	.
8G`>J 8c`>	8e^< 8b-^< 8cc^<)	.
!!LO:LB:g=original
=20	=20	=20
8C`>L	8r	.
8G`>J 8e`>	8g^> 8b-X^> 8gg^>	.
8C`>L	8r	.
8G`>J 8c`>	8e^< 8b-^< 8cc^<	.
8C`>L	8r	.
*Xped	*	*
8G`>J 8e`>	8g^> 8b-^> 8gg^>	.
8F`>L	8r	.
8A`>J 8f`>	8a^> 8ff^>	.
=21	=21	=21
*	*ped	*
8AA-X`>L	8r	.
8F`>J 8d-X`>	(>4f^</ 4a-X^</ 4ff^</	.
*	*Xped	*
8AA-`>L	.	.
8F-X`>J 8d-`>	4f-X^</ 4g^</ 4ff-X^</	.
*	*ped	*
8AA-`>L	.	.
8E-X`>J 8c`>	8e-X^< 8g-X^< 8ee-X^<)	.
8AA-`>L<	8r	.
8E-`>J 8A`>	8c^< 8g-^< 8a-^<	.
=22	=22	=22
*	*^	*
8AA-X`>L	2reeeyy	8r	.
8E-X`>J 8c`>	.	8g-X^</ 8a-X^</ 8ee-X^</	.
8AA-`>L<	.	8r	.
8E-`>J 8A-y`>	.	8c^< 8g-^< 8a-^<	.
8AA-`>L	8reeeyy	8r	.
*	*Xped	*	*
8E-`>J 8c`>	(4ee-^>	8g- 8a-	.
8AA-`>L	.	8rg	.
!	!LO:TX:a:t=P:cross-measure beam:problem	!	!
8F`>J 8d-X`>	[>8dd-XL	8f 8a-	.
=23	=23	=23	=23
8AA-X`>L	8dd-XJ]	8rg	.
8E`>J 8c`>	4cc	8e-X 8a-X	.
8AA-`>L<	.	8rg	.
!	!LO:TX:a:t=Cres-cen-do:dur=ext=ud:problem:text with extention lines	!	!
!	!	!	!LO:HP:a
8D-X`>J 8B`>	4b-X	8d-X 8a-	<
8AA-`>L<	.	8rg	.
8C`>J 8A-y`>	4a-	8c 8a-	.
8AA-`>L	.	8rg	.
8G-X`>J 8e-X`>	[>8ee-XL	8g-X 8a-	.
!!LO:PB:g=original
=24	=24	=24	=24
8AA-X`L	8ee-XJ]	8rg	.
8F`J 8d-X`	4dd-X	8f 8a-y	.
8AA-`L<	.	8rg	.
8D-X`J 8B-X`	4b-X	8d-X 8a-	.
8AA-`L	.	8rg	.
8F`J 8d-`	4dd-	8f 8a-	.
8AA-`L	.	8rg	.
!	!LO:TX:a:t=P:cross-measure beam:problem	!	!
8E-y`J 8c`	[>8ccL	8e-y 8a-	.
=25	=25	=25	=25
8AA-X`>L	8ccJ]	8re	.
8G-X`>J 8e-y`>	4ee-X	8g-X 8a-X	.
8AA-L	.	8rg	.
8FJ 8d-y	4dd-X	8f 8a-	.
8AA-L	.	8rg	.
8E-yJ 8c	4cc	8e-y 8a-	.
8AAnL	.	8rg	.
!	!LO:TX:a:t=P:cross-measure beam:problem	!	!
8G-J 8f	[>8ffL	8g-X 8cc	.
=26	=26	=26	=26
8AAL	8ffJ]	8rg	.
8G-XJ 8e-X	4ee-X	8g-X 8cc	.
8AAL	.	8rg	.
8G-J 8c	4cc	8e-y 8g-	.
8BB-XL	.	8rg	.
8G-J 8e-	4ee-	8g- 8b-X	[
8BB-L	.	8rg	.
!	!LO:TX:a:t=P:cross-measure beam:problem	!	!
8FJ 8d	[>8ddnL	8f 8b-	.
=27	=27	=27	=27
8BBn`>L	8ddJ])	8rg	f
8A-X`>J 8f`>	4aa-X	8a-X 8dd	.
8BB`>L	.	8rg	.
8G`>J 8f`>	4gg	8g 8dd	.
8C`>L	.	8rg	.
8G`>J 8c`>	4.rcccyy	(>4e/ 4b-X/ 4cc/	.
8FF`>L<	.	.	.
8F`>J 8c`>	.	8f/ 8a-/ 8ff/)	.
*	*v	*v	*
!!LO:LB:g=original
=28	=28	=28
8BBn`>L	8r	.
8A-X`>J 8f`>	8a-X^> 8dd^> 8aa-X^>	.
8BB`>L	8r	.
8G`>J 8f`>	8g^> 8dd^> 8gg^>	.
8C`>L	8r	.
8G`>J 8c`>	8e^> 8b-X^> 8cc^>	.
8FF`>L<	8r	.
8F`>J 8c`>	8f^> 8a-^> 8ff^>	.
=29	=29	=29
8EE-X`>L<	8r	.
8E-y`>J 8c`>	8g`> 8cc`> 8gg`>	.
8FF`>L<	8r	.
8F`>J 8c`>	8a-X`> 8cc`> 8aa-X`>	.
8GG`>L	8r	.
8G`>J 8c`>	8e-X\`> 8g`>\ 8ee-X`>\	.
8GG`>L	8r	.
8G`>J 8Bn`>	8f\`> 8g\`> 8dd\`>	.
=30	=30	=30
*	*^	*
8C`>L	8r	8raayy	.
8G`>J 8c`>	(2..cc^>	8e-X 8g	.
8FF`>L<	.	8re	.
8F`>J 8c	.	8f 8a-X	.
8C`>L	.	8re	.
8G`>J 8c`>	.	8e- 8g	.
8FF`>L<	.	8re	.
8F`>J 8c`>	.	8f 8a-	.
=31	=31	=31	=31
*	*ped	*	*
!	!	!LO:TX:b:i:t=poco ritenuto	!
!	!	!	!LO:DY:rj
8EE-X`>L<	8rcccyy	8r	pp
*	*Xped	*	*
8E-y`>J 8c`>	4ryy	4g^> 4cc^> 4gg^>	.
*	*ped	*	*
8FF`>L<	.	.	.
*	*Xped	*	*
8F`>J 8c`>	4ryy	4a-X^> 4cc^> 4aa-X^>	.
*	*ped	*	*
8GG`>L	.	.	.
*	*Xped	*	*
8G`>J 8c`>	4ryy	4e-X^>\ 4g^>\ 4ee-y^>\	.
*	*ped	*	*
8GG`>L	.	.	.
*	*Xped	*	*
8G`>J 8B`>	[>8dd	8f\ 8g\	.
!!LO:LB:g=original
=32	=32	=32	=32
*	*ped	*	*
8C`L	8dd]	8re	.
*	*Xped	*	*
8G`>J 8c`>	2..cc^>	8en 8g	.
8FF`>L<	.	8re	.
8F`>J 8c`>	.	8f 8a-X	.
8C`>L	.	8re	.
8G`>J 8c`>	.	8e 8g	.
8FF`>L<	.	8re	.
8F`>J 8c`>	.	8f 8a-)	.
*	*v	*v	*
=33	=33	=33
*	*ped	*
!	!	!LO:DY:rj
8EE-XL<	8r	f
*	*Xped	*
!	!	!LO:HP:a
8E-yJ 8c	4g^> 4cc^> 4gg^>	<
*	*ped	*
8FFL<	.	.
*	*Xped	*
8FJ 8c	4a-X^> 4cc^> 4aa-X^>	.
*	*ped	*
8AA-XL	.	.
*	*Xped	*
8A-XJ 8c 8f	4cc^> 4ff^> 4ccc^>	.
*	*ped	*
8GGL	.	.
*	*Xped	*
8GJ 8d 8g	8dd^> 8gg^> 8bb^>	[
=34	=34	=34
*	*^	*
*	*ped	*	*
8CL	2..rgggyy	8r	.
*	*Xped	*	*
!	!	!	!LO:HP:a
8cJ 8g	.	4b-X^> 4ee^> 4bb-X^>	>
8FL	.	.	.
8cJ 8f	.	4a-X^> 4ff^> 4aa-X^>	.
8GL	.	.	.
8cJ 8e-X	.	8g^> 8ee-X^> 8gg^>	]
*	*ped	*	*
8GGL	.	8r	.
*	*Xped	*	*
!	!LO:TX:a:t=P:cross-measure beam:problem	!	!
8GJ 8d	([>8bnL	8f 8g	.
=35	=35	=35	=35
*	*ped	*	*
!	!	!	!LO:DY:rj
8CL	8bnJ]	8re	p
*	*Xped	*	*
8GJ 8c	4cc	8e 8g	.
8BBnL	.	8re	.
8A-XJ 8d-X	4dd-X	8f 8a-X	.
8CL	.	8re	.
8GJ 8c	4cc	8e 8g	.
8BBL	.	8re	.
8A-J 8dn	[>8ddnL	8f 8a-	.
!!LO:LB:g=original
=36	=36	=36	=36
8C`>L	8ddJ]	8re	.
8G`>J 8c`>	4cc	8e 8g	.
8BBn`>L	.	8re	.
8A-X`>J 8d-X`>	4dd-X	8f 8a-X	.
8C`>L	.	8re	.
8G`>J 8c`>	4cc	8e 8g	.
8BB`>L	.	8re	.
!	!LO:TX:a:t=P:cross-measure beam:problem	!	!
8A-`>J 8dny`>	[>8ddnL	8f 8a-	.
=37	=37	=37	=37
8C`>L	8ddJ]	8re	.
8c`>J	4cc	8e 8g	.
8BBn`>L	.	8re	.
8A-X`>J 8d`>	4dd	8f 8a-X	.
8C`>L	.	8re	.
8G`>J 8c`>	4cc	8e 8g	.
8BB`>L	.	8re	.
!	!LO:TX:a:t=P:cross-measure beam:problem	!	!
8A-`>J 8d-X`>	[>8dd-XL	8f 8a-	.
=38	=38	=38	=38
8CL	8dd-J]	8re	.
8GJ 8c	4cc	8e 8g	.
8BBL	.	8re	.
8G#XJ 8d	4ddny	8f 8g#X	.
*	*ped	*	*
8BBL	.	8re	.
*	*Xped	*	*
8AJ 8d#X	4dd#X	8f#X 8a	.
*	*ped	*	*
8EEL<	.	8re	.
*	*Xped	*	*
8EJ 8B 8dn	[<8eeL	8e 8g#	.
=39	=39	=39	=39
*	*ped	*	*
8AA`>L	8eeJ])	8rg	.
*	*Xped	*	*
8E`>J 8c`>	(4ee	8e 8a	.
8C`>L	.	8rg	.
8A`>J 8e`>	2aa^>	8a 8ee	.
8BB`L	.	8rg	.
8F`>J 8d`>	.	8a 8dd	.
8E`>L	.	8rg	.
8B`>J 8e`>	8gg#X)	8g#X 8ee	.
!!LO:LB:g=original
=40	=40	=40	=40
8C`>L	4.rgggyy	8r	.
8A`>J 8e`>	.	8a 8ee`>	.
8AA`>L	.	8r	.
!	!LO:TX:a:t=P:diminuendolike accent:problem	!	!
8A`>J 8e`>	(2ccc^>	8cc 8ee	.
8D`>L	.	8r	.
8A`>J 8f`>	.	8cc 8ff	.
8D`>L	.	8r	.
8G#X`>J 8f`>	[>8bb	8b 8ff	.
=41	=41	=41	=41
8C`>L	8bbL]	8r	.
8A`>J 8f`>	8aaJ)	8a 8ff	.
8C`>L	2.rbbbyy	8r	.
8A`>J 8e`>	.	8ee^^> 8aa^^> 8eee^^>	.
8BB`>L	.	8r	.
8F`>J 8d`>	.	8dd^^> 8aa^^> 8ddd^^>	.
8EE`>L<	.	8r	.
8E`>J 8B`> 8d`>	.	8ee^^> 8gg#X^^> 8eee^^>	.
*	*v	*v	*
=42	=42	=42
8AA`>L	8r	.
8E`>J 8c`>	8cc^^> 8ee^^> 8ccc^^>	.
8BB`>L	8r	.
8E`>J 8d`>	8g#X^^> 8ee^^> 8gg#X^^>	.
8C`>L	8r	.
8E`>J 8e`>	8a^^> 8ee^^> 8aa^^>	.
8AA`>L	8r	.
8E`>J 8c`>	8cc^^> 8ee^^> 8ccc^^>	.
=43	=43	=43
8EE`>L<	8r	.
8E`>J 8d`>	8b^^> 8ee^^> 8bb^^>	.
8AA`>L	8r	.
8E`>J 8c`>	8a^^> 8ee^^> 8aa^^>	.
8BB`>L	8r	.
8E`>J 8G#X`> 8d	8e^^>\ 8b^^>\ 8ee^^>\	.
8AA`>L	8r	.
8E`>J 8A`> 8c`>	8a^^> 8ee^^> 8aa^^>	.
!!LO:PB:g=original
=44	=44	=44
8EE`>L<	8r	.
8E`>J 8G#X`> 8d`>	8b^^> 8ee^^> 8bb^^>	.
8AA`>L	8r	.
8E`>J 8A`> 8c`>	8a^^> 8ee^^> 8aa^^>	<
8BB`>L	8r	.
8E`>J 8G#`> 8d`>	8e^^>\ 8b^^>\ 8ee^^>\	.
8AA`>L	8r	.
8E`>J 8A`> 8c`>	8a^^> 8ee^^> 8aa^^>	.
=45	=45	=45
8GG`>L	8r	.
8Gny`>J 8e`>	8b^^> 8ee^^> 8bb^^>	[
8AA`>L	8r	.
8A`>J 8e`>	8cc^^> 8ee^^> 8ccc^^>	>
8BB`>L	8r	.
8B`>J 8e`>	8g^^> 8b^^> 8gg^^>	.
8BB`>L	8r	.
8B`>J 8d#X`>	8a^^> 8b^^> 8ff#X^^>	]
=46	=46	=46
8E`>L	8r	.
8B`>J 8e`>	8g#X^^> 8b^^> 8ee^^>	<
8D#X`>L	8r	.
8c`>J 8f#X`>	8a^^> 8cc^^> 8ff#X^^>	.
8Dn`>L	8r	.
8B`>J 8fn`>	8gny^^> 8b^^> 8ffn^^> 8gg^^>	.
!LO:TX:t=P:mixed beam:problem	!	!
8EE`>/L	8r	.
8B`>\J 8e`>\	8g#X^^> 8dd^^> 8ee^^> 8gg#X^^>	[
=47	=47	=47
*	*^	*
8AA`>L	4.rbbbyy	8r	.
8A`>J 8e`>	.	8a`> 8cc`> 8ee`> 8aa`>	.
8C`>L	.	8r	.
8A`>J 8e`>	(2aa	8a 8ee	.
8BB`>L	.	8r	.
8F`>J 8d`>	.	8a 8dd	.
8E`>L	.	8r	.
8B`>J 8e`>	8gg#XL	8g#X 8ee	.
!!LO:LB:g=original
=48	=48	=48	=48
8C`>L	8gg#XJ)	8r	.
8A`>J 8e`>	(4aa	8a 8ee	.
8AA`>L	.	8r	.
8A`>J 8e`>	2ccc	8cc 8ee	.
8D`>L	.	8r	.
8A`>J 8f`>	.	8cc 8ff	.
8D`>L	.	8r	.
!	!LO:TX:a:t=P:cross-measure beam:problem	!	!
8G#X`>J 8f`>	[<8bbL	8b 8ff	.
=49	=49	=49	=49
8C`>L	8bbJ]	8r	.
8A`>J 8f`>	4aa)	8a 8ff	.
8C`>L	.	8r	.
8A`>J 8e`>	(4eee	8ee 8aa	.
8BB`>L	.	8r	.
8F`>J 8d`>	4ddd	8dd 8aa	.
8EE`>L<	.	8r	.
!	!LO:TX:a:t=P:cross-measure beam:problem	!	!
8E`>J 8B`> 8d`>	[<8eeeL	8ee 8gg#X	.
=50	=50	=50	=50
8AA`>L	8eeeJ]	8r	.
8E`>J 8A`> 8c`>	4ccc	8cc 8ee	.
8BB`>L	.	8r	.
8E`>J 8G#X`> 8d`>	4bb	8b 8ee	.
8C`>L	.	8r	.
8E`>J 8A`> 8e`>	4.aa	8a 8ee	.
8AA`>L	.	8r	.
8E`>J 8A`> 8c`>	.	8cc 8ee	.
=51	=51	=51	=51
8EE`>L<	8rbbbyy	8r	.
8E`>J 8d`>	4bb	8b 8ee	.
8AA`>L	.	8r	.
8E`>J 8c`>	4aa	8a 8ee	.
8BB`>L	.	8r	.
8E`>J 8G#X`> 8d`>	4ee	8e 8b	.
8AA`>L	.	8r	.
8E`>J 8A`> 8c`>	[<8aaL	8a 8ee	.
!!LO:LB:g=original
=52	=52	=52	=52
8EE`>L<	8aaJ]	8r	.
8E`>J 8d`>	4bb	8b 8ee	.
8AA`>L	.	8r	.
8E`>J 8c`>	4aa	8a 8ee	.
8BB`>L	.	8r	.
8E`>J 8d`>	4ee	8e 8b	.
*	*ped	*	*
8C#X`>L	.	8r	.
*	*Xped	*	*
8B-X`>J 8e`>	8ggn^>	8g 8b-X	.
=53	=53	=53	=53
8D`>L<	2rbbbyy	8r	.
8B-X`>J 8d`>	.	8g-X^> 8b-X^> 8gg-X^>	.
8F`>L<	.	8r	.
8B-`>J 8d`>	.	8f^> 8b-^> 8ff^>	.
!LO:TX:t=P:mixed beam:problem	!	!	!
*	*ped	*	*
8DD`>L/	8rcccyy	8r	.
*	*Xped	*	*
8F`>J\ 8B-`>	4dd^> 4b-X	8f	.
!LO:TX:t=P:mixed beam:problem	!	!	!
*	*ped	*	*
8EE`>L/	.	8rg	.
*	*Xped	*	*
8E`>J\ 8Bn`>\	8bn^>)	8d 8g#X	.
=54	=54	=54	=54
*ped	*	*	*
8AA`>L<	8r	8rcccyy	.
*Xped	*	*	*
8E`>J 8A`>	[>(2..a^	8c	.
8D`>L	.	8r	.
8F`>J 8A`>	.	8d 8f	.
8AA`>L<	.	8rc	.
8E`>J 8A`>	.	8c 8e	.
8D`>L	.	8rc	.
8F`>J 8A`>	.	8d 8f	.
=55	=55	=55	=55
8AA`>L<	4.a]	8rc	pp
8E`>J 8A`>	.	4c 4e	.
*	*ped	*	*
!LO:TX:t=P:mixed beam:problem	!	!	!
8CC`>L/	.	.	.
*	*Xped	*	*
8E`>J\ 8A`>\	4ee	4e 4a	.
*	*ped	*	*
!LO:TX:t=P:mixed beam:problem	!	!	!
8DD`>L/	.	.	.
*	*Xped	*	*
8F`>J\ 8B-X`>\	4dd	4f 4b-X	.
*	*ped	*	*
8EE`>L\	.	.	.
*	*Xped	*	*
8E`>J\ 8Bn`>\	[8bn)	[8d [>8g#X	.
!!LO:LB:g=original
=56	=56	=56	=56
*ped	*	*	*
!	!	!LO:TX:t=P:ligatura kończy się skierowana w dół:problem	!
8AA`>L<	8b]	8dL] 8g#]	.
*Xped	*	*	*
8E`>J 8A`>	(2..a	8cJ	.
8D`>L	.	8rc	.
8F`>J 8A`>	.	8d N(>8f	.
8AA`>L<	.	8rc	.
8E`>J 8A`>	.	8c 8e	.
8D`>L	.	8rc	.
8F`>J 8A`>	.	8d 8f	.
=57	=57	=57	=57
*	*	*	*^
8AA`>L<	4.aN)	8rc	.	.
8E`>J 8A`>	.	8c 8e	.	.
8C`>L	.	8rc	.	.
!	!	!	!	!LO:DY:rj
8E`>J 8c`>	4ee	8e 8a	.	f<
*ped	*	*	*	*
8BB`>L	.	8r	.	.
*Xped	*	*	*	*
8B`>J 8f#X`>	4aa	8a 8dd#X	.	.
*ped	*	*	*	*
8E`>L	.	8r	.	.
*Xped	*	*	*	*
!	!LO:TX:a:t=P:cross-measure beam:problem	!	!	!
8B`>J 8e`>	[<8gg#XL	8g#y 8ee	.	[[
*	*	*	*v	*v
=58	=58	=58	=58
*ped	*	*	*
8AA`>L	8gg#XJ]	8r	.
*Xped	*	*	*
8A`>J 8e`>	4ggn	8gny 8cc#X	>
8D`>L	.	8r	.
8A`>J 8d`>	4ff#X	8f#X 8dd	.
*ped	*	*	*
!LO:TX:t=P:mixed beam:problem	!	!	!
8DD`</L	.	8r	.
*Xped	*	*	*
8F`>J\ 8B-X`>\	4ffn	8fn 8b-X	.
*ped	*	*	*
!LO:TX:t=P:mixed beam:problem	!	!	!
8EE`</L	.	8r	]
*Xped	*	*	*
!	!LO:TX:a:t=P:cross-measure beam:problem	!	!
8E`>J\ 8Bn`>\	[<8bnL	8d 8g#X	.
=59	=59	=59	=59
*ped	*	*	*
8AA`>L<	8bJ]	8rc	.
*Xped	*	*	*
8E`>J 8A`>	4a	8c 8e	.
8D`>L	.	8rc	.
!	!LO:N:vis=4.	!	!
8F`>J 8A`>	4f	4d 4f	.
*ped	*	*	*
!LO:TX:t=P:mixed beam:problem	!	!	!
8DD`</L	.	.	.
*Xped	*	*	*
8F`>J\ 8B-X`>\	4b-X/ 4dd/	4.rcyy	.
*ped	*	*	*
!LO:TX:t=P:mixed beam:problem	!	!	!
8EE`</L	.	.	.
*Xped	*	*	*
8E`>J\ 8Bn`>\	[<8dL [<8g#X [>8bn	.	.
*	*v	*v	*
!!LO:LB:g=original
=60	=60	=60
*ped	*	*
8FF`>L<	8dJ] 8g#X] 8b]	.
*Xped	*	*
8F`>J 8A`>	4c 4a	.
*ped	*	*
8CC`>L<	.	.
*Xped	*	*
8C`>J 8A`>	4e 4a 4ee	.
*ped	*	*
8DD`>L<	.	.
*Xped	*	*
8D`>J 8B-X`>	4f 4b-X 4dd	.
*ped	*	*
8EE`>L<	.	.
*Xped	*	*
!	!LO:TX:a:t=P:cross-measure beam:problem	!
8E`>J 8Bn`>	(8dL [8g#X^>	.
=61	=61	=61
*	*^	*
*ped	*	*	*
8AA`>L<	8g#XJ)])	8dL	.
*Xped	*	*	*
8E`>J 8A`>	(2a	8cJ	.
8D`>L	.	8re	.
!	!	!	!LO:HP:a
8F`>J 8A`>	.	8d 8f	>
8AA`>L<	.	8re	.
8E`>J 8A`>	4cc	8c 8e	.
8D`>L	.	8re	.
!	!LO:TX:a:t=P:cross-measure beam:problem	!	!
8F`>J 8A`>	[<8b-XL	8d 8f	.
=62	=62	=62	=62
*^	*	*	*
2.ryy	8AA`>L<	8b-X]	8re	.
.	8E`>J 8A`>	2a	8c 8e	.
.	8D`>L	.	8re	.
.	8F`>J 8A`>	.	8d 8f	.
.	8AAL<	.	8re	.
!	!	!LO:TX:i:a:t=rall	!	!
.	8EJ 8A	4cc	8c 8e	.
*ped	*	*	*	*
(4AA	8AAL	.	8re	.
.	8DJ) 8B-X	8b-X)	8d 8f	.
*v	*v	*	*	*
*	*v	*v	*
=63	=63	=63
!	!LO:TX:a:i:t=lento	!
.	8qqd	.
[1AA: 1D: [1F: 1B-X:	[1d:^< [<1f: (>[1b-X:	.
=64	=64	=64
*	*^	*
1AA] 1F]	2b-X]	1d] 1f]	.
.	4dd	.	.
*Xped	*	*	*
.	4cc#X)	.	.
*	*v	*v	*
=65	=65	=65
*ped	*	*
1AA;>: 1E: 1A:	1c#X;: 1e: 1a:	.
!!LO:PB:g=original
==	==	==
*-	*-	*-
!!!RDF**kern: > = above
!!!RDF**kern: < = below
!!title: @{OTL}; @{OPS} @{ONM} publisher: @{PPR}
!!!RDF**kern: N = linked
!!!RDF**dynam: > = "dim"
!!!ENC: Jędrzej Mróz
!!!END: 2018-10-04
!!!EED: Emilia Ziętek
!!!EST: revision finished 2018-10-09
!!!EED2: Antoni Szymański
!!!EST2: revision finished 2019-10-18
!!!rism-genre: Etude
!!!rism-key: A minor
!!!rism-opus: op. 25, no. 4
!!!rism-title: Etude in A minor op. 25, no. 4
!!!rism-permalink: https://opac.rism.info/search?id=1001002386&View=rism
!!!rism-773a-OPR: 1001002277
!!!rism-parent-permalink: https://opac.rism.info/search?id=1001002277&View=rism
